X: 60
T:Ejercicio 6. Escala de Apoyaturas
M:4/4
L:1/4
K:C
B,{C}B, | C{D}C | D{E}D | E{F}E | F{G}F | G{A}G | A{B}A | B{c}B | c{d}c
|
 B{c}B | A{B}A |G{A}G | F{G}F | E{F}E | D{E}D |  C{D}C :|

